X: 3172
T: Love in a Village.   a Reel.
%R: reel
B: Niel Gow & Sons "Complete Repository" v.3 p.17 #2
Z: 2021 John Chambers <jc:trillian.mit.edu>
M: C
L: 1/8
K: G
% - - - - - - - - - -
V: 1 staves=2
|:\
(.G.G)(.G.G) (B/c/d) BG | (.G.G)(.G.G) (F/G/A) FD |\
(.G.G)(.G.G) (B/c/d) BG | (c/d/e) (A/B/c) BG ~G2 :|\
gggd (B/c/d) BG | gggB (A/B/c) AF |
gggd (B/c/d) BG | (c/d/e) (A/B/c) BG ~G2 ||\
gggd (B/c/d) BG | gggB (A/B/c) AF |\
gggd (B/c/d) BG | (c/d/e) (A/B/c) BG ~G2 |]
% - - - - - - - - - -
V: 2 clef=bass middle=d
|:\
G2g2 g2g2 | G2g2 d2D2 | G2g2 g2B2 | c2d2 G2G2 :| g2g2 g2g2 | g2g2 f2d2 |
g2g2 g2B2 | c2d2 G2G2 || g2g2 g2g2 | g2g2 f2d2 | g2g2 g2B2 | c2d2 G2G2 |]


